icons/Communication/chat-check-fill.svg

<svg viewBox="0 0 24 24" xmlns="http://www.w3.org/2000/svg"><path d="M6.45455 19L2 22.5V4C2 3.44772 2.44772 3 3 3H21C21.5523 3 22 3.44772 22 4V18C22 18.5523 21.5523 19 21 19H6.45455ZM11.2929 12.1213L8.81802 9.64645L7.40381 11.0607L11.2929 14.9497L16.9497 9.29289L15.5355 7.87868L11.2929 12.1213Z"/></svg>

<svg xmlns="http://www.w3.org/2000/svg" viewBox="0 0 24 24">
    <g>
        <path fill="none" d="M0 0h24v24H0z"/>
        <path d="M6.455 19L2 22.5V4a1 1 0 0 1 1-1h18a1 1 0 0 1 1 1v14a1 1 0 0 1-1 1H6.455zm4.838-6.879L8.818 9.646l-1.414 1.415 3.889 3.889 5.657-5.657-1.414-1.414-4.243 4.242z"/>
    </g>
</svg>
